Numix-Light/16/status/google-chrome-no-notification-disabled.svg

<svg xmlns="http://www.w3.org/2000/svg" width="16" viewBox="0 0 4.5155556 4.5155556" height="16">
 <g transform="matrix(0.27715101,0,0,0.2776971,-6.8149632,1.2427439)" style="fill:#353535;opacity:0.4;fill-opacity:1">
  <path d="m 37.87 6.632 c 0.797 -1.381 0.969 -2.946 0.615 -4.381 l -4.37 0.002 c 0.023 0.023 0.048 0.047 0.071 0.071 0.002 0.002 0.006 0.002 0.008 0.004 0.008 0.009 0.018 0.016 0.026 0.025 0.033 0.038 0.061 0.084 0.091 0.124 0.01 0.013 0.02 0.025 0.029 0.037 0.008 0.011 0.014 0.022 0.022 0.033 0.002 0.002 0.006 0.002 0.008 0.004 0.011 0.016 0.022 0.033 0.033 0.049 0.013 0.02 0.024 0.041 0.036 0.061 0.003 0.006 0.008 0.011 0.011 0.016 0.007 0.012 0.015 0.021 0.022 0.033 0.01 0.018 0.019 0.038 0.028 0.057 0.005 0.01 0.009 0.019 0.014 0.029 0.009 0.019 0.019 0.038 0.028 0.057 0.004 0.009 0.01 0.019 0.014 0.029 0.001 0.002 -0.005 0.006 -0.004 0.008 0.012 0.027 0.024 0.053 0.035 0.081 0.001 0.002 -0.005 0.006 -0.004 0.008 0.003 0.01 0.011 0.019 0.014 0.029 0.005 0.014 0.013 0.026 0.017 0.041 0.003 0.008 0.004 0.016 0.007 0.024 0.009 0.027 0.015 0.056 0.023 0.084 0.007 0.026 0.021 0.05 0.027 0.077 0.002 0.01 0 0.021 0.002 0.032 0.006 0.027 0.01 0.052 0.015 0.08 0.005 0.027 0.012 0.053 0.015 0.08 0.001 0.011 0.001 0.021 0.002 0.032 0.001 0.013 -0.003 0.027 -0.002 0.039 0.001 0.011 0 0.021 0.002 0.032 0.004 0.023 0.011 0.044 0.012 0.068 0 0.006 -0.001 0.013 -0.001 0.02 0 0.004 0.003 0.008 0.003 0.012 0 0.003 -0.004 0.005 -0.004 0.008 0 0.01 0.002 0.021 0.002 0.032 0 0.007 -0.001 0.013 -0.001 0.02 0 0.039 -0.004 0.079 -0.007 0.118 -0.001 0.019 -0.002 0.04 -0.004 0.059 -0.002 0.016 -0.005 0.031 -0.007 0.047 -0.004 0.029 -0.004 0.057 -0.009 0.086 -0.006 0.033 -0.011 0.069 -0.018 0.102 -0.006 0.026 -0.017 0.052 -0.024 0.078 -0.01 0.038 -0.022 0.076 -0.034 0.113 -0.005 0.015 -0.009 0.028 -0.014 0.043 -0.009 0.026 -0.014 0.052 -0.024 0.078 -0.003 0.008 -0.01 0.015 -0.013 0.023 -0.014 0.033 -0.03 0.064 -0.045 0.096 -0.006 0.013 -0.008 0.029 -0.014 0.043 -0.015 0.028 -0.033 0.057 -0.048 0.084 -0.009 0.015 -0.017 0.031 -0.026 0.046 l -2.752 4.766 c 2.396 0.443 4.912 -0.606 6.2 -2.836 z" style="stroke:none"/>
  <path d="m 32.738 -2.258 c -1.594 0 -3.036 0.634 -4.101 1.658 l 2.187 3.784 c 0.008 -0.031 0.017 -0.065 0.026 -0.097 0.001 -0.003 -0.001 -0.006 0 -0.009 0.004 -0.012 0.005 -0.024 0.009 -0.035 0.016 -0.048 0.042 -0.094 0.062 -0.141 0.006 -0.014 0.011 -0.03 0.018 -0.044 0.006 -0.012 0.012 -0.023 0.018 -0.035 0.001 -0.002 -0.001 -0.006 0 -0.009 0.009 -0.018 0.017 -0.035 0.026 -0.053 0.011 -0.021 0.024 -0.041 0.035 -0.062 0.003 -0.006 0.006 -0.012 0.009 -0.018 0.007 -0.012 0.011 -0.024 0.018 -0.035 0.011 -0.018 0.024 -0.035 0.035 -0.053 0.006 -0.009 0.012 -0.018 0.018 -0.026 0.012 -0.018 0.023 -0.036 0.035 -0.053 0.006 -0.008 0.012 -0.018 0.018 -0.026 0.001 -0.001 0.008 0.001 0.009 0 0.018 -0.024 0.034 -0.048 0.053 -0.071 0.001 -0.002 0.007 0.001 0.009 0 0.007 -0.007 0.011 -0.019 0.018 -0.026 0.01 -0.011 0.017 -0.024 0.026 -0.035 0.006 -0.006 0.012 -0.011 0.018 -0.018 0.019 -0.021 0.041 -0.041 0.062 -0.062 0.019 -0.019 0.033 -0.043 0.053 -0.062 0.008 -0.007 0.019 -0.011 0.026 -0.018 0.021 -0.019 0.04 -0.035 0.062 -0.053 0.021 -0.017 0.04 -0.036 0.062 -0.053 0.009 -0.006 0.018 -0.011 0.026 -0.018 0.01 -0.007 0.025 -0.01 0.035 -0.018 0.009 -0.006 0.018 -0.011 0.026 -0.018 0.018 -0.015 0.033 -0.032 0.053 -0.044 0.005 -0.003 0.012 -0.005 0.018 -0.009 0.003 -0.002 0.005 -0.007 0.009 -0.009 0.002 -0.001 0.007 0.001 0.009 0 0.009 -0.005 0.017 -0.012 0.026 -0.018 0.006 -0.003 0.012 -0.006 0.018 -0.009 0.034 -0.019 0.071 -0.036 0.106 -0.053 0.017 -0.008 0.035 -0.018 0.053 -0.026 0.014 -0.006 0.03 -0.012 0.044 -0.018 0.027 -0.011 0.052 -0.025 0.079 -0.035 0.032 -0.012 0.065 -0.025 0.097 -0.035 0.025 -0.008 0.054 -0.011 0.079 -0.018 0.038 -0.01 0.076 -0.019 0.115 -0.026 0.015 -0.003 0.029 -0.006 0.044 -0.009 0.027 -0.005 0.052 -0.014 0.079 -0.018 0.009 -0.001 0.018 0.001 0.026 0 0.035 -0.005 0.07 -0.006 0.106 -0.009 0.015 -0.001 0.029 -0.008 0.044 -0.009 0.032 -0.002 0.065 0 0.097 0 0.017 0 0.036 0 0.053 0 l 5.503 0 c -0.814 -2.296 -2.981 -3.951 -5.556 -3.951 z" style="stroke:none"/>
  <path d="m 28.24 -0.176 c -0.888 1.036 -1.429 2.373 -1.429 3.845 0 2.701 1.806 4.983 4.277 5.697 l 2.187 -3.792 c -0.046 0.013 -0.095 0.017 -0.141 0.026 -0.017 0.004 -0.035 0.006 -0.053 0.009 -0.061 0.011 -0.122 0.021 -0.185 0.026 -0.006 0 -0.012 0 -0.018 0 -0.029 0.002 -0.059 0.008 -0.088 0.009 -0.018 0 -0.035 0 -0.053 0 -0.012 0 -0.023 0 -0.035 0 -0.029 -0.001 -0.059 -0.007 -0.088 -0.009 -0.006 0 -0.012 0 -0.018 0 -0.03 -0.002 -0.059 -0.005 -0.088 -0.009 -0.032 -0.004 -0.065 -0.004 -0.097 -0.009 -0.015 -0.002 -0.029 -0.006 -0.044 -0.009 -0.009 -0.002 -0.017 -0.007 -0.026 -0.009 -0.035 -0.007 -0.071 -0.017 -0.106 -0.026 -0.003 -0.001 -0.006 0.001 -0.009 0 -0.024 -0.006 -0.047 -0.011 -0.071 -0.018 -0.003 -0.001 -0.006 0.001 -0.009 0 -0.009 -0.003 -0.017 -0.006 -0.026 -0.009 -0.021 -0.007 -0.04 -0.019 -0.062 -0.026 -0.002 -0.001 -0.006 0.001 -0.009 0 -0.028 -0.01 -0.052 -0.024 -0.079 -0.035 -0.032 -0.014 -0.065 -0.028 -0.097 -0.044 -0.026 -0.013 -0.054 -0.021 -0.079 -0.035 -0.015 -0.008 -0.029 -0.018 -0.044 -0.026 -0.012 -0.007 -0.024 -0.011 -0.035 -0.018 -0.018 -0.011 -0.035 -0.024 -0.053 -0.035 -0.009 -0.006 -0.018 -0.012 -0.026 -0.018 -0.018 -0.012 -0.036 -0.023 -0.053 -0.035 -0.006 -0.005 -0.011 -0.013 -0.018 -0.018 -0.027 -0.02 -0.053 -0.04 -0.079 -0.062 -0.02 -0.017 -0.042 -0.035 -0.062 -0.053 -0.008 -0.007 -0.019 -0.01 -0.026 -0.018 -0.02 -0.018 -0.034 -0.042 -0.053 -0.062 -0.027 -0.027 -0.054 -0.051 -0.079 -0.079 -0.017 -0.019 -0.036 -0.042 -0.053 -0.062 -0.017 -0.021 -0.036 -0.04 -0.053 -0.062 -0.004 -0.005 -0.005 -0.012 -0.009 -0.018 -0.017 -0.024 -0.036 -0.046 -0.053 -0.071 -0.006 -0.009 -0.012 -0.017 -0.018 -0.026 -0.012 -0.018 -0.024 -0.035 -0.035 -0.053 -0.007 -0.012 -0.011 -0.024 -0.018 -0.035 -0.009 -0.015 -0.019 -0.029 -0.026 -0.044 -0.001 -0.002 0.001 -0.006 0 -0.009 l -0.018 -0.035 -2.743 -4.745 z" style="stroke:none"/>
  <circle cx="0.5" cy="0.5" r="41" transform="matrix(0.03441734,0,0,0.03441734,32.720637,3.6516805)"/>
 </g>
</svg>

<svg width="16" xmlns="http://www.w3.org/2000/svg" viewBox="0 0 4.5155556 4.5155556" height="16">
 <g style="fill:#353535;opacity:0.4;fill-opacity:1;stroke-width:0.727" transform="matrix(0.38109 0 0 0.38168 -10.217 0.863)">
  <path style="stroke:none" d="m 37.87,6.632 c 0.797,-1.381 0.969,-2.946 0.615,-4.381 l -4.37,0.002 c 0.023,0.023 0.048,0.047 0.071,0.071 0.002,0.002 0.006,0.002 0.008,0.004 0.008,0.009 0.018,0.016 0.026,0.025 0.033,0.038 0.061,0.084 0.091,0.124 0.01,0.013 0.02,0.025 0.029,0.037 0.008,0.011 0.014,0.022 0.022,0.033 0.002,0.002 0.006,0.002 0.008,0.004 0.011,0.016 0.022,0.033 0.033,0.049 0.013,0.02 0.024,0.041 0.036,0.061 0.003,0.006 0.008,0.011 0.011,0.016 0.007,0.012 0.015,0.021 0.022,0.033 0.01,0.018 0.019,0.038 0.028,0.057 0.005,0.01 0.009,0.019 0.014,0.029 0.009,0.019 0.019,0.038 0.028,0.057 0.004,0.009 0.01,0.019 0.014,0.029 0.001,0.002 -0.005,0.006 -0.004,0.008 0.012,0.027 0.024,0.053 0.035,0.081 10e-4,0.002 -0.005,0.006 -0.004,0.008 0.003,0.01 0.011,0.019 0.014,0.029 0.005,0.014 0.013,0.026 0.017,0.041 0.003,0.008 0.004,0.016 0.007,0.024 0.009,0.027 0.015,0.056 0.023,0.084 0.007,0.026 0.021,0.05 0.027,0.077 0.002,0.01 0,0.021 0.002,0.032 0.006,0.027 0.01,0.052 0.015,0.08 0.005,0.027 0.012,0.053 0.015,0.08 10e-4,0.011 10e-4,0.021 0.002,0.032 0.001,0.013 -0.003,0.027 -0.002,0.039 10e-4,0.011 0,0.021 0.002,0.032 0.004,0.023 0.011,0.044 0.012,0.068 0,0.006 -10e-4,0.013 -10e-4,0.02 0,0.004 0.003,0.008 0.003,0.012 0,0.003 -0.004,0.005 -0.004,0.008 0,0.01 0.002,0.021 0.002,0.032 0,0.007 -10e-4,0.013 -10e-4,0.02 0,0.039 -0.004,0.079 -0.007,0.118 -0.001,0.019 -0.002,0.04 -0.004,0.059 C 34.703,3.882 34.7,3.897 34.698,3.913 34.694,3.942 34.694,3.97 34.689,3.999 34.683,4.032 34.678,4.068 34.671,4.101 34.665,4.127 34.654,4.153 34.647,4.179 34.637,4.217 34.625,4.255 34.613,4.292 34.608,4.307 34.604,4.32 34.599,4.335 34.59,4.361 34.585,4.387 34.575,4.413 34.572,4.421 34.565,4.428 34.562,4.436 34.548,4.469 34.532,4.5 34.517,4.532 34.511,4.545 34.509,4.561 34.503,4.575 34.488,4.603 34.47,4.632 34.455,4.659 34.446,4.674 34.438,4.69 34.429,4.705 l -2.752,4.766 c 2.396,0.443 4.912,-0.606 6.2,-2.836 z"/>
  <path style="stroke:none" d="m 32.738,-2.258 c -1.594,0 -3.036,0.634 -4.101,1.658 l 2.187,3.784 c 0.008,-0.031 0.017,-0.065 0.026,-0.097 10e-4,-0.003 -0.001,-0.006 0,-0.009 0.004,-0.012 0.005,-0.024 0.009,-0.035 0.016,-0.048 0.042,-0.094 0.062,-0.141 0.006,-0.014 0.011,-0.03 0.018,-0.044 0.006,-0.012 0.012,-0.023 0.018,-0.035 10e-4,-0.002 -0.001,-0.006 0,-0.009 0.009,-0.018 0.017,-0.035 0.026,-0.053 0.011,-0.021 0.024,-0.041 0.035,-0.062 0.003,-0.006 0.006,-0.012 0.009,-0.018 0.007,-0.012 0.011,-0.024 0.018,-0.035 0.011,-0.018 0.024,-0.035 0.035,-0.053 0.006,-0.009 0.012,-0.018 0.018,-0.026 0.012,-0.018 0.023,-0.036 0.035,-0.053 0.006,-0.008 0.012,-0.018 0.018,-0.026 0.001,-10e-4 0.008,10e-4 0.009,0 0.018,-0.024 0.034,-0.048 0.053,-0.071 10e-4,-0.002 0.007,0.001 0.009,0 C 31.229,2.41 31.233,2.398 31.24,2.391 31.25,2.38 31.257,2.367 31.266,2.356 31.272,2.35 31.278,2.345 31.284,2.338 31.303,2.317 31.325,2.297 31.346,2.276 31.365,2.257 31.379,2.233 31.399,2.214 31.407,2.207 31.418,2.203 31.425,2.196 31.446,2.177 31.465,2.161 31.487,2.143 31.508,2.126 31.527,2.107 31.549,2.09 31.558,2.084 31.567,2.079 31.575,2.072 31.585,2.065 31.6,2.062 31.61,2.054 31.619,2.048 31.628,2.043 31.636,2.036 31.654,2.021 31.669,2.004 31.689,1.992 31.694,1.989 31.701,1.987 31.707,1.983 31.71,1.981 31.712,1.976 31.716,1.974 c 0.002,-10e-4 0.007,0.001 0.009,0 C 31.734,1.969 31.742,1.962 31.751,1.956 31.757,1.953 31.763,1.95 31.769,1.947 31.803,1.928 31.84,1.911 31.875,1.894 31.892,1.886 31.91,1.876 31.928,1.868 31.942,1.862 31.958,1.856 31.972,1.85 31.999,1.839 32.024,1.825 32.051,1.815 32.083,1.803 32.116,1.79 32.148,1.78 c 0.025,-0.008 0.054,-0.011 0.079,-0.018 0.038,-0.01 0.076,-0.019 0.115,-0.026 0.015,-0.003 0.029,-0.006 0.044,-0.009 0.027,-0.005 0.052,-0.014 0.079,-0.018 0.009,-0.001 0.018,10e-4 0.026,0 0.035,-0.005 0.07,-0.006 0.106,-0.009 0.015,-10e-4 0.029,-0.008 0.044,-0.009 0.032,-0.002 0.065,0 0.097,0 0.017,0 0.036,0 0.053,0 h 5.503 C 37.48,-0.605 35.313,-2.26 32.738,-2.26 Z"/>
  <path style="stroke:none" d="m 28.24,-0.176 c -0.888,1.036 -1.429,2.373 -1.429,3.845 0,2.701 1.806,4.983 4.277,5.697 L 33.275,5.574 C 33.229,5.587 33.18,5.591 33.134,5.6 33.117,5.604 33.099,5.606 33.081,5.609 33.02,5.62 32.959,5.63 32.896,5.635 c -0.006,0 -0.012,0 -0.018,0 -0.029,0.002 -0.059,0.008 -0.088,0.009 -0.018,0 -0.035,0 -0.053,0 -0.012,0 -0.023,0 -0.035,0 -0.029,-0.001 -0.059,-0.007 -0.088,-0.009 -0.006,0 -0.012,0 -0.018,0 C 32.566,5.633 32.537,5.63 32.508,5.626 32.476,5.622 32.443,5.622 32.411,5.617 32.396,5.615 32.382,5.611 32.367,5.608 32.358,5.606 32.35,5.601 32.341,5.599 32.306,5.592 32.27,5.582 32.235,5.573 32.232,5.572 32.229,5.574 32.226,5.573 32.202,5.567 32.179,5.562 32.155,5.555 32.152,5.554 32.149,5.556 32.146,5.555 32.137,5.552 32.129,5.549 32.12,5.546 32.099,5.539 32.08,5.527 32.058,5.52 32.056,5.519 32.052,5.521 32.049,5.52 32.021,5.51 31.997,5.496 31.97,5.485 31.938,5.471 31.905,5.457 31.873,5.441 31.847,5.428 31.819,5.42 31.794,5.406 31.779,5.398 31.765,5.388 31.75,5.38 31.738,5.373 31.726,5.369 31.715,5.362 31.697,5.351 31.68,5.338 31.662,5.327 31.653,5.321 31.644,5.315 31.636,5.309 31.618,5.297 31.6,5.286 31.583,5.274 31.577,5.269 31.572,5.261 31.565,5.256 31.538,5.236 31.512,5.216 31.486,5.194 31.466,5.177 31.444,5.159 31.424,5.141 31.416,5.134 31.405,5.131 31.398,5.123 31.378,5.105 31.364,5.081 31.345,5.061 31.318,5.034 31.291,5.01 31.266,4.982 31.249,4.963 31.23,4.94 31.213,4.92 31.196,4.899 31.177,4.88 31.16,4.858 31.156,4.853 31.155,4.846 31.151,4.84 31.134,4.816 31.115,4.794 31.098,4.769 31.092,4.76 31.086,4.752 31.08,4.743 31.068,4.725 31.056,4.708 31.045,4.69 31.038,4.678 31.034,4.666 31.027,4.655 31.018,4.64 31.008,4.626 31.001,4.611 31,4.609 31.002,4.605 31.001,4.602 L 30.983,4.567 28.24,-0.178 Z"/>
  <circle cx="0.5" transform="matrix(0.03442 0 0 0.03442 32.721 3.652)" cy="0.5" r="41"/>
 </g>
</svg>
